public/svg/icon/bch.svg

<svg xmlns="http://www.w3.org/2000/svg" xmlns:xlink="http://www.w3.org/1999/xlink" width="32" height="32" viewBox="0 0 32 32"><defs><linearGradient id="bch-c" x1="50%" x2="50%" y1="0%" y2="100%"><stop offset="0%" stop-color="#FFF" stop-opacity=".5"/><stop offset="100%" stop-opacity=".5"/></linearGradient><circle id="bch-b" cx="16" cy="15" r="15"/><filter id="bch-a" width="111.7%" height="111.7%" x="-5.8%" y="-4.2%" filterUnits="objectBoundingBox"><feOffset dy=".5" in="SourceAlpha" result="shadowOffsetOuter1"/><feGaussianBlur in="shadowOffsetOuter1" result="shadowBlurOuter1" stdDeviation=".5"/><feComposite in="shadowBlurOuter1" in2="SourceAlpha" operator="out" result="shadowBlurOuter1"/><feColorMatrix in="shadowBlurOuter1" values="0 0 0 0 0 0 0 0 0 0 0 0 0 0 0 0 0 0 0.199473505 0"/></filter><path id="bch-e" d="M21.2072761,9.53388244 C21.7779898,10.9762953 21.4127015,12.0450128 20.5648678,12.8352294 C22.3115656,12.7590603 23.6140831,13.4367484 24.036276,15.6715156 C24.561264,18.4466676 22.7543242,19.7496946 19.9228687,20.740362 L20.7367346,23.5806653 L19.0244317,24.0718543 L18.2216651,21.2694834 C17.778055,21.3971281 17.3224717,21.5237269 16.8500274,21.648691 L17.6573084,24.4638042 L15.9467109,24.9540087 L15.1301373,22.1090156 C14.7288372,22.221328 14.3187946,22.3312979 13.9039655,22.4497159 L11.6755987,23.0887791 L11.4294361,20.9462284 C11.4294361,20.9462284 12.7017599,20.6027579 12.6742838,20.5896293 C13.1586305,20.4498348 13.1871436,20.0650055 13.1549902,19.8379911 L11.8680459,15.3482612 C11.9306759,15.3297242 11.9918467,15.3125982 12.0488682,15.2961624 C11.9753945,15.3067483 11.9123864,15.3226612 11.8644501,15.3361255 L10.9453361,12.1313733 C10.7800384,11.8027309 10.4388354,11.4647961 9.74517974,11.6634723 C9.75952135,11.6341589 8.50192323,12.0208581 8.50192323,12.0208581 L7.97705812,10.1921343 L10.3390495,9.51571569 L10.3417749,9.52437462 C10.6967122,9.42234415 11.0588139,9.31106113 11.4273768,9.19718466 L10.6215728,6.38462959 L12.3330229,5.89393284 L13.1233758,8.65117179 C13.5779215,8.51096032 14.0355176,8.37012464 14.4856549,8.24098536 L13.7001462,5.50198294 L15.4124491,5.01079388 L16.2191718,7.8239555 C18.4850626,7.38379342 20.4307386,7.56168002 21.2072761,9.53388244 Z M20.5560732,16.3045506 C19.9202937,14.0867943 16.3769062,15.4640517 15.2159755,15.7966454 L16.2964939,19.5664967 C17.4566861,19.2326239 21.1667132,18.4305178 20.5560732,16.3045506 Z M18.2345981,11.2143454 C17.6558274,9.19674684 14.7074754,10.3748512 13.7408478,10.6521108 L14.7211247,14.071108 C15.6877523,13.7938485 18.7887568,13.1489457 18.2345981,11.2143454 Z"/><filter id="bch-d" width="121.7%" height="117.5%" x="-10.8%" y="-6.3%" filterUnits="objectBoundingBox"><feOffset dy=".5" in="SourceAlpha" result="shadowOffsetOuter1"/><feGaussianBlur in="shadowOffsetOuter1" result="shadowBlurOuter1" stdDeviation=".5"/><feColorMatrix in="shadowBlurOuter1" values="0 0 0 0 0 0 0 0 0 0 0 0 0 0 0 0 0 0 0.204257246 0"/></filter></defs><g fill="none" fill-rule="evenodd"><use fill="#000" filter="url(#bch-a)" xlink:href="#bch-b"/><use fill="#8DC351" xlink:href="#bch-b"/><use fill="url(#bch-c)" style="mix-blend-mode:soft-light" xlink:href="#bch-b"/><circle cx="16" cy="15" r="14.5" stroke="#000" stroke-opacity=".097"/><g fill-rule="nonzero"><use fill="#000" filter="url(#bch-d)" xlink:href="#bch-e"/><use fill="#FFF" fill-rule="evenodd" xlink:href="#bch-e"/></g></g></svg>

<svg xmlns="http://www.w3.org/2000/svg" xmlns:xlink="http://www.w3.org/1999/xlink" width="32" height="32" viewBox="0 0 32 32"><defs><filter id="a" width="111.7%" height="111.7%" x="-5.8%" y="-4.2%" filterUnits="objectBoundingBox"><feOffset dy=".5" in="SourceAlpha" result="shadowOffsetOuter1"/><feGaussianBlur in="shadowOffsetOuter1" result="shadowBlurOuter1" stdDeviation=".5"/><feComposite in="shadowBlurOuter1" in2="SourceAlpha" operator="out" result="shadowBlurOuter1"/><feColorMatrix in="shadowBlurOuter1" values="0 0 0 0 0 0 0 0 0 0 0 0 0 0 0 0 0 0 0.199473505 0"/></filter><filter id="d" width="121.7%" height="117.5%" x="-10.8%" y="-6.3%" filterUnits="objectBoundingBox"><feOffset dy=".5" in="SourceAlpha" result="shadowOffsetOuter1"/><feGaussianBlur in="shadowOffsetOuter1" result="shadowBlurOuter1" stdDeviation=".5"/><feColorMatrix in="shadowBlurOuter1" values="0 0 0 0 0 0 0 0 0 0 0 0 0 0 0 0 0 0 0.204257246 0"/></filter><linearGradient id="c" x1="50%" x2="50%" y1="0%" y2="100%"><stop offset="0%" stop-color="#FFF" stop-opacity=".5"/><stop offset="100%" stop-opacity=".5"/></linearGradient><circle id="b" cx="16" cy="15" r="15"/><path id="e" d="M21.207 9.534c.571 1.442.206 2.511-.642 3.301 1.747-.076 3.05.602 3.471 2.837.525 2.775-1.282 4.078-4.113 5.068l.814 2.84-1.713.492-.802-2.803c-.444.128-.9.255-1.372.38l.807 2.815-1.71.49-.817-2.845c-.401.112-.811.222-1.226.34l-2.228.64-.247-2.143s1.273-.343 1.245-.356c.485-.14.513-.525.481-.752l-1.287-4.49.18-.052c-.073.01-.136.027-.184.04l-.919-3.205c-.165-.328-.506-.666-1.2-.468.015-.029-1.243.358-1.243.358l-.525-1.829 2.362-.676.003.008c.355-.102.717-.213 1.085-.327l-.805-2.812 1.711-.491.79 2.757c.455-.14.913-.28 1.363-.41L13.7 5.502l1.712-.491.807 2.813c2.266-.44 4.212-.262 4.988 1.71zm-.65 6.77c-.637-2.217-4.18-.84-5.341-.507l1.08 3.77c1.16-.334 4.87-1.136 4.26-3.262zm-2.322-5.09c-.58-2.017-3.528-.84-4.494-.562l.98 3.42c.967-.278 4.068-.923 3.514-2.858z"/></defs><g fill="none" fill-rule="evenodd"><use fill="#000" filter="url(#a)" xlink:href="#b"/><use fill="#8DC351" xlink:href="#b"/><use fill="url(#c)" style="mix-blend-mode:soft-light" xlink:href="#b"/><circle cx="16" cy="15" r="14.5" stroke="#000" stroke-opacity=".097"/><g fill-rule="nonzero"><use fill="#000" filter="url(#d)" xlink:href="#e"/><use fill="#FFF" fill-rule="evenodd" xlink:href="#e"/></g></g></svg>
